X: 112
T: Ballyoran Polka #1
N: page 38
N: heptatonic
R: polka
M: 4/4
L: 1/16
K: G
Q:1/4=60
Bc|"G" d2g2 g2fe|d2B2 B2AB|"D"c2e2 e2dc|"G" B2G2 GABc|\
d2g2 g2fe|d2B2 B2AB|"D"c2e2 e2d2|"G"G4G2::
BA|"G"G2DG B2d2|"D"c2A2 ABAG|F2DF A2c2|"G"B2A2 "D"GcBA|\
"G"G2DG B2c2|"D"B2A2 A3G|"D"F2e2 e3d|"G"G4G2:|
